usr/share/icons/biglinux-icons-material/scalable/apps/sublime-merge.svg

<?xml version="1.0" encoding="UTF-8" standalone="no"?>
<svg
   width="24"
   height="24"
   version="1.1"
   id="svg2"
   sodipodi:docname="sublimemerge.svg"
   inkscape:version="1.3 (0e150ed6c4, 2023-07-21)"
   xmlns:inkscape="http://www.inkscape.org/namespaces/inkscape"
   xmlns:sodipodi="http://sodipodi.sourceforge.net/DTD/sodipodi-0.dtd"
   xmlns:xlink="http://www.w3.org/1999/xlink"
   xmlns="http://www.w3.org/2000/svg"
   xmlns:svg="http://www.w3.org/2000/svg"
   xmlns:sketch="http://www.bohemiancoding.com/sketch/ns">
  <defs
     id="defs2">
    <linearGradient
       inkscape:collect="always"
       xlink:href="#linearGradient488"
       id="linearGradient490"
       x1="52.977863"
       y1="96.00692"
       x2="50.989128"
       y2="9.2256308"
       gradientUnits="userSpaceOnUse"
       gradientTransform="matrix(0.24444444,0,0,0.24444444,-0.22222222,-0.22222222)" />
    <linearGradient
       inkscape:collect="always"
       id="linearGradient488">
      <stop
         style="stop-color:#2a3838;stop-opacity:1;"
         offset="0"
         id="stop484" />
      <stop
         style="stop-color:#4c5f64;stop-opacity:1"
         offset="1"
         id="stop486" />
    </linearGradient>
  </defs>
  <sodipodi:namedview
     id="namedview2"
     pagecolor="#ffffff"
     bordercolor="#000000"
     borderopacity="0.25"
     inkscape:showpageshadow="2"
     inkscape:pageopacity="0.0"
     inkscape:pagecheckerboard="0"
     inkscape:deskcolor="#d1d1d1"
     inkscape:zoom="4.4801844"
     inkscape:cx="75.220119"
     inkscape:cy="27.11942"
     inkscape:window-width="2560"
     inkscape:window-height="998"
     inkscape:window-x="0"
     inkscape:window-y="0"
     inkscape:window-maximized="1"
     inkscape:current-layer="svg2" />
  <path
     d="M 12,0.99999998 C 2,0.99999998 0.99999998,6 0.99999998,12 0.99999998,20 4.0000001,23 12,23 20,23 23,20 23,12 23,6 22,0.99999998 12,0.99999998 Z"
     sketch:type="MSShapeGroup"
     id="path6"
     style="font-variation-settings:normal;display:inline;vector-effect:none;fill:url(#linearGradient490);fill-opacity:1;stroke-width:1.11627;stroke-linecap:butt;stroke-linejoin:miter;stroke-miterlimit:4;stroke-dasharray:none;stroke-dashoffset:0;stroke-opacity:1;-inkscape-stroke:none;stop-color:#000000"
     sodipodi:nodetypes="sssss"
     inkscape:label="Shape" />
  <g
     id="g4"
     transform="matrix(0.84615385,0,0,0.84615385,-10.379239,-10.611769)">
    <path
       d="M 25.997841,28.589249 19.13,23.724804 21.425903,20.223 l 6.867841,4.864445 z"
       fill="#2ecbff"
       opacity="0.6"
       id="path3"
       style="stroke-width:0.71747" />
    <path
       d="m 26.368166,24.594046 h 5.269539 l 2.128678,2.128678 -2.128678,2.128678 H 27.597799 L 21.425903,33.223 19.13,29.721196 23.363072,26.722724 Z"
       fill="#2ecbff"
       id="path4"
       style="stroke-width:0.71747" />
  </g>
</svg>

<svg xmlns="http://www.w3.org/2000/svg" xmlns:xlink="http://www.w3.org/1999/xlink" width="24" height="24"><defs><linearGradient xlink:href="#a" id="b" x1="52.978" x2="50.989" y1="96.007" y2="9.226" gradientTransform="matrix(.24444 0 0 .24444 -.222 -.222)" gradientUnits="userSpaceOnUse"/><linearGradient id="a"><stop offset="0" style="stop-color:#2a3838;stop-opacity:1"/><stop offset="1" style="stop-color:#4c5f64;stop-opacity:1"/></linearGradient></defs><path d="M12 1C2 1 1 6 1 12c0 8 3 11 11 11s11-3 11-11c0-6-1-11-11-11Z" style="font-variation-settings:normal;display:inline;vector-effect:none;fill:url(#b);fill-opacity:1;stroke-width:1.11627;stroke-linecap:butt;stroke-linejoin:miter;stroke-miterlimit:4;stroke-dasharray:none;stroke-dashoffset:0;stroke-opacity:1;-inkscape-stroke:none;stop-color:#000"/><g fill="#2ecbff"><path d="m25.998 28.59-6.868-4.865 2.296-3.502 6.868 4.864z" opacity=".6" style="stroke-width:.71747" transform="matrix(.84615 0 0 .84615 -10.38 -10.612)"/><path d="M26.368 24.594h5.27l2.128 2.129-2.128 2.128h-4.04l-6.172 4.372-2.296-3.502 4.233-2.998Z" style="stroke-width:.71747" transform="matrix(.84615 0 0 .84615 -10.38 -10.612)"/></g></svg>
